communes/724.svg

<?xml version="1.0" encoding="UTF-8" standalone="no"?>
<svg
   xmlns:dc="http://purl.org/dc/elements/1.1/"
   xmlns:cc="http://web.resource.org/cc/"
   xmlns:rdf="http://www.w3.org/1999/02/22-rdf-syntax-ns#"
   xmlns:svg="http://www.w3.org/2000/svg"
   xmlns="http://www.w3.org/2000/svg"
   xmlns:xlink="http://www.w3.org/1999/xlink"
   xmlns:sodipodi="http://sodipodi.sourceforge.net/DTD/sodipodi-0.dtd"
   xmlns:inkscape="http://www.inkscape.org/namespaces/inkscape"
   height="763"
   width="603"
   version="1.0"
   id="svg20"
   sodipodi:version="0.32"
   inkscape:version="0.44.1"
   sodipodi:docname="Nods-coat of arms.svg"
   sodipodi:docbase="F:\MIS DOCUMENTOS\Mis imágenes\Encyclopédie\Escudos de Suiza">
  <metadata
     id="metadata31">
    <rdf:RDF>
      <cc:Work
         rdf:about="">
        <dc:format>image/svg+xml</dc:format>
        <dc:type
           rdf:resource="http://purl.org/dc/dcmitype/StillImage" />
        <dc:date>07-AUG-2006</dc:date>
        <dc:creator>
          <cc:Agent>
            <dc:title>Jérôme BLUM (wagner51)</dc:title>
          </cc:Agent>
        </dc:creator>
        <cc:license
           rdf:resource="http://creativecommons.org/licenses/GPL/2.0/" />
        <dc:coverage />
        <dc:description>Gabarit pour le Projet:Blasons de WIkipédia</dc:description>
        <dc:subject>
          <rdf:Bag>
            <rdf:li>blason suisse modèle gabarit projet blasons</rdf:li>
          </rdf:Bag>
        </dc:subject>
        <dc:language>fr</dc:language>
        <dc:title>Gabrit d'un blason suisse</dc:title>
      </cc:Work>
      <cc:License
         rdf:about="http://creativecommons.org/licenses/GPL/2.0/">
        <cc:permits
           rdf:resource="http://web.resource.org/cc/Reproduction" />
        <cc:permits
           rdf:resource="http://web.resource.org/cc/Distribution" />
        <cc:requires
           rdf:resource="http://web.resource.org/cc/Notice" />
        <cc:permits
           rdf:resource="http://web.resource.org/cc/DerivativeWorks" />
        <cc:requires
           rdf:resource="http://web.resource.org/cc/ShareAlike" />
        <cc:requires
           rdf:resource="http://web.resource.org/cc/SourceCode" />
      </cc:License>
    </rdf:RDF>
  </metadata>
  <defs
     id="defs29">
    <linearGradient
       id="linearGradient2893">
      <stop
         style="stop-color:#ffffff;stop-opacity:0.3137255;"
         offset="0"
         id="stop2895" />
      <stop
         id="stop2897"
         offset="0.19"
         style="stop-color:#ffffff;stop-opacity:0.25098041;" />
      <stop
         style="stop-color:#6b6b6b;stop-opacity:0.1254902;"
         offset="0.60000002"
         id="stop2901" />
      <stop
         style="stop-color:#000000;stop-opacity:0.1254902;"
         offset="1"
         id="stop2899" />
    </linearGradient>
    <linearGradient
       id="linearGradient2955">
      <stop
         style="stop-color:white;stop-opacity:0;"
         offset="0"
         id="stop2965" />
      <stop
         style="stop-color:black;stop-opacity:0.64583331;"
         offset="1"
         id="stop2959" />
    </linearGradient>
    <radialGradient
       inkscape:collect="always"
       xlink:href="#linearGradient2893"
       id="radialGradient3236"
       gradientUnits="userSpaceOnUse"
       gradientTransform="matrix(1.215027,1.531577e-24,1.464684e-23,1.266667,-839.1924,-490.4894)"
       cx="858.04236"
       cy="579.93323"
       fx="858.04236"
       fy="579.93323"
       r="300" />
  </defs>
  <sodipodi:namedview
     inkscape:window-height="682"
     inkscape:window-width="1024"
     inkscape:pageshadow="2"
     inkscape:pageopacity="0.0"
     guidetolerance="10.0"
     gridtolerance="10.0"
     objecttolerance="10.0"
     borderopacity="1.0"
     bordercolor="#666666"
     pagecolor="#ffffff"
     id="base"
     inkscape:zoom="0.5011119"
     inkscape:cx="400.83693"
     inkscape:cy="412.45055"
     inkscape:window-x="-4"
     inkscape:window-y="-4"
     inkscape:current-layer="layer2"
     showgrid="true" />
  <desc
     id="desc22">Coat of Arms of Canton of Freiburg (Fribourg)</desc>
  <g
     inkscape:groupmode="layer"
     id="layer1"
     inkscape:label="Fond écu"
     sodipodi:insensitive="true">
    <path
       id="path1899"
       d="M 1.5,1.49998 L 1.5,460.3679 C 1.5,626.6785 135.81456,761.5 301.49999,761.5 C 467.18543,761.5 601.5,626.6785 601.5,460.3679 L 601.5,1.49998 L 1.5,1.49998 z "
       style="fill:#fcef3c;fill-opacity:1" />
  </g>
  <g
     inkscape:groupmode="layer"
     id="layer2"
     inkscape:label="Meubles">
    <path
       style="fill:black;fill-opacity:1;fill-rule:evenodd;stroke:none;stroke-width:1px;stroke-linecap:butt;stroke-linejoin:miter;stroke-opacity:1"
       d="M 221.41108,63 L 236.34984,157.93876 L 366.34984,158.76677 L 380,63 L 295.88924,89.472311 L 221.41108,63 z "
       id="path39837"
       sodipodi:nodetypes="cccccc" />
    <path
       style="fill:black;fill-opacity:1;fill-rule:evenodd;stroke:black;stroke-width:0.99999982px;stroke-linecap:butt;stroke-linejoin:miter;stroke-opacity:1"
       d="M 155.49991,157.23504 C 168.42234,358.33625 226.73324,440.00529 298.41547,522.50004 C 416.44691,404.91535 427.73098,282.85107 444.34069,154.46576 L 155.49991,157.23504 z "
       id="path32700"
       sodipodi:nodetypes="cccc" />
    <g
       id="g25575"
       transform="matrix(0.989236,0,0,0.989236,6.220736,16.77738)">
      <path
         style="fill:black;fill-opacity:1;fill-rule:evenodd;stroke:black;stroke-width:3.03264284;stroke-linecap:butt;stroke-linejoin:miter;stroke-miterlimit:4;stroke-dasharray:none;stroke-opacity:1"
         d="M 84.234477,141.1774 L 30.63221,123.70535 C 20.726247,193.79757 4.1340578,330.61238 61.021483,497.29642 C 109.24099,638.58297 182.98872,703.6468 270.18783,722.49961 C 141.85586,571.42785 152.80458,389.81161 146.69734,301.04722 L 75.623032,263.48179 L 84.234477,141.1774 z "
         id="path21128"
         sodipodi:nodetypes="ccscccc" />
      <path
         style="fill:none;fill-opacity:0.75;fill-rule:evenodd;stroke:#fcef3c;stroke-width:5.05440474;stroke-linecap:butt;stroke-linejoin:miter;stroke-miterlimit:4;stroke-dasharray:none;stroke-opacity:1"
         d="M 148.57006,305.5987 L 77.104846,294.26377 L 87.857076,167.5066 L 23.398647,144.48538"
         id="path21130"
         sodipodi:nodetypes="cccc" />
      <path
         transform="matrix(-4.068508,0,0,4.068508,3494.605,-1244.025)"
         sodipodi:type="arc"
         style="fill:#fcef3c;fill-opacity:1;fill-rule:evenodd;stroke:none;stroke-width:0.73737091;stroke-linecap:round;stroke-linejoin:round;stroke-miterlimit:4;stroke-dasharray:none;stroke-opacity:1"
         id="path21132"
         sodipodi:cx="846.99811"
         sodipodi:cy="351.3187"
         sodipodi:rx="1.7638445"
         sodipodi:ry="1.7638445"
         d="M 848.76195 351.3187 A 1.7638445 1.7638445 0 1 1  845.23426,351.3187 A 1.7638445 1.7638445 0 1 1  848.76195 351.3187 z" />
      <path
         d="M 848.76195 351.3187 A 1.7638445 1.7638445 0 1 1  845.23426,351.3187 A 1.7638445 1.7638445 0 1 1  848.76195 351.3187 z"
         sodipodi:ry="1.7638445"
         sodipodi:rx="1.7638445"
         sodipodi:cy="351.3187"
         sodipodi:cx="846.99811"
         id="path21134"
         style="fill:#fcef3c;fill-opacity:1;fill-rule:evenodd;stroke:none;stroke-width:0.73737091;stroke-linecap:round;stroke-linejoin:round;stroke-miterlimit:4;stroke-dasharray:none;stroke-opacity:1"
         sodipodi:type="arc"
         transform="matrix(-4.068508,0,0,4.068508,3494.605,-1195.203)" />
    </g>
    <g
       transform="matrix(-0.989236,0,0,0.989236,593.7795,16.77738)"
       id="g25581">
      <path
         sodipodi:nodetypes="ccscccc"
         id="path25583"
         d="M 84.234477,141.1774 L 30.63221,123.70535 C 20.726247,193.79757 4.1340578,330.61238 61.021483,497.29642 C 109.24099,638.58297 182.98872,703.6468 270.18783,722.49961 C 141.85586,571.42785 152.80458,389.81161 146.69734,301.04722 L 75.623032,263.48179 L 84.234477,141.1774 z "
         style="fill:black;fill-opacity:1;fill-rule:evenodd;stroke:black;stroke-width:3.03264284;stroke-linecap:butt;stroke-linejoin:miter;stroke-miterlimit:4;stroke-dasharray:none;stroke-opacity:1" />
      <path
         sodipodi:nodetypes="cccc"
         id="path25585"
         d="M 148.57006,305.5987 L 77.104846,294.26377 L 87.857076,167.5066 L 23.398647,144.48538"
         style="fill:none;fill-opacity:0.75;fill-rule:evenodd;stroke:#fcef3c;stroke-width:5.05440474;stroke-linecap:butt;stroke-linejoin:miter;stroke-miterlimit:4;stroke-dasharray:none;stroke-opacity:1" />
      <path
         d="M 848.76195 351.3187 A 1.7638445 1.7638445 0 1 1  845.23426,351.3187 A 1.7638445 1.7638445 0 1 1  848.76195 351.3187 z"
         sodipodi:ry="1.7638445"
         sodipodi:rx="1.7638445"
         sodipodi:cy="351.3187"
         sodipodi:cx="846.99811"
         id="path25587"
         style="fill:#fcef3c;fill-opacity:1;fill-rule:evenodd;stroke:none;stroke-width:0.73737091;stroke-linecap:round;stroke-linejoin:round;stroke-miterlimit:4;stroke-dasharray:none;stroke-opacity:1"
         sodipodi:type="arc"
         transform="matrix(-4.068508,0,0,4.068508,3494.605,-1244.025)" />
      <path
         transform="matrix(-4.068508,0,0,4.068508,3494.605,-1195.203)"
         sodipodi:type="arc"
         style="fill:#fcef3c;fill-opacity:1;fill-rule:evenodd;stroke:none;stroke-width:0.73737091;stroke-linecap:round;stroke-linejoin:round;stroke-miterlimit:4;stroke-dasharray:none;stroke-opacity:1"
         id="path25589"
         sodipodi:cx="846.99811"
         sodipodi:cy="351.3187"
         sodipodi:rx="1.7638445"
         sodipodi:ry="1.7638445"
         d="M 848.76195 351.3187 A 1.7638445 1.7638445 0 1 1  845.23426,351.3187 A 1.7638445 1.7638445 0 1 1  848.76195 351.3187 z" />
    </g>
    <path
       sodipodi:type="arc"
       style="fill:black;fill-opacity:1;fill-rule:evenodd;stroke:#fcef3c;stroke-width:0.77935899;stroke-linecap:round;stroke-linejoin:round;stroke-miterlimit:4;stroke-dasharray:none;stroke-opacity:1"
       id="path30920"
       sodipodi:cx="791.08429"
       sodipodi:cy="331.21088"
       sodipodi:rx="20.63698"
       sodipodi:ry="9.8775291"
       d="M 811.72127 331.21088 A 20.63698 9.8775291 0 1 1  770.44731,331.21088 A 20.63698 9.8775291 0 1 1  811.72127 331.21088 z"
       transform="matrix(3.925058,0,0,3.775038,-2804.25,-1188.914)" />
    <path
       style="fill:#fcef3c;fill-opacity:1;fill-rule:evenodd;stroke:none;stroke-width:3;stroke-linecap:butt;stroke-linejoin:miter;stroke-miterlimit:4;stroke-dasharray:none;stroke-opacity:1"
       d="M 293.28481,330.25 L 296.8125,483.40625 L 299.8125,483.40625 L 302.63465,328.83892 L 293.28481,330.25 z "
       id="path30026"
       sodipodi:nodetypes="ccccc" />
    <path
       style="fill:#fcef3c;fill-opacity:1;fill-rule:evenodd;stroke:none;stroke-width:1;stroke-linecap:butt;stroke-linejoin:miter;stroke-miterlimit:4;stroke-dasharray:none;stroke-opacity:1"
       d="M 430.875,162.5 L 365.75,172.4375 L 360.26195,179.0818 L 431.03125,163.5 L 430.875,162.5 z "
       id="path32698"
       sodipodi:nodetypes="ccccc" />
    <path
       style="fill:#fcef3c;fill-opacity:1;fill-rule:evenodd;stroke:none;stroke-width:0.99999982px;stroke-linecap:butt;stroke-linejoin:miter;stroke-opacity:1"
       d="M 169.65625,162.5 L 169.5,163.5 L 239.56733,179.09501 L 238.3125,173.15625 L 169.65625,162.5 z "
       id="path31811"
       sodipodi:nodetypes="ccccc" />
    <path
       style="fill:black;fill-opacity:1;fill-rule:evenodd;stroke:#fcef3c;stroke-width:3;stroke-linecap:round;stroke-linejoin:round;stroke-miterlimit:4;stroke-dasharray:none;stroke-opacity:1"
       d="M 300.63156,40.077637 C 271.57471,40.077637 248.01125,47.05851 248.01125,55.655211 C 248.01125,62.8018 265.719,75.712571 287.91053,77.542669 L 286.52589,178.55859 L 266.9985,185.05596 C 235.0915,177.01827 232.64077,164.45681 234.00396,155.74708 C 235.52516,146.02783 219.61287,77.502947 220.96717,66.274455 C 222.45489,76.470225 233.78496,157.59682 235.60246,169.33439 C 247.37657,245.37305 266.7005,343.87238 301.73548,336.66483 C 338.82202,329.03523 352.34063,237.19876 365.60799,176.01704 C 368.593,162.25201 379.18076,75.960557 382.40583,66.607026 C 383.89044,74.360389 370.0313,141.91173 368.23026,154.467 C 367.54212,159.26411 369.58914,182.54676 334.56267,184.85222 L 314.00129,178.64378 L 311.23201,76.158066 C 333.75858,74.393791 353.25187,62.872254 353.25187,55.655211 C 353.25187,47.058471 329.68841,40.077598 300.63156,40.077637 z "
       id="path28248"
       sodipodi:nodetypes="csccsscssscssccsc" />
    <path
       style="fill:black;fill-opacity:1;fill-rule:evenodd;stroke:#fcef3c;stroke-width:3;stroke-linecap:butt;stroke-linejoin:miter;stroke-miterlimit:4;stroke-dasharray:none;stroke-opacity:0.98882681"
       d="M 311.24517,77.522863 L 310.6875,77.6875 L 314.46852,176.80275 L 333.71393,185.3125 L 335.8125,96.1875 L 335.8125,95.5 L 335.3125,95.03125 L 311.24517,77.522863 z "
       id="path31809"
       sodipodi:nodetypes="cccccccc" />
    <path
       sodipodi:nodetypes="cccccccc"
       id="path43383"
       d="M 289.27287,77.522863 L 289.83054,77.6875 L 286.04952,177.27506 L 268.92073,184.60697 L 264.70554,96.1875 L 264.70554,95.5 L 265.20554,95.03125 L 289.27287,77.522863 z "
       style="fill:black;fill-opacity:1;fill-rule:evenodd;stroke:#fcef3c;stroke-width:3;stroke-linecap:butt;stroke-linejoin:miter;stroke-miterlimit:4;stroke-dasharray:none;stroke-opacity:0.9888268" />
  </g>
  <g
     inkscape:groupmode="layer"
     id="layer3"
     inkscape:label="Reflet final"
     style="display:inline"
     sodipodi:insensitive="true">
    <path
       style="fill:url(#radialGradient3236);fill-opacity:1"
       d="M 1.5,1.5 L 1.5,460.3679 C 1.5,626.67854 135.81454,761.5 301.49993,761.5 C 467.1854,761.5 601.5,626.67854 601.5,460.3679 L 601.5,1.5 L 1.5,1.5 z "
       id="path2346" />
  </g>
  <g
     inkscape:groupmode="layer"
     id="layer4"
     inkscape:label="Contour final"
     style="display:inline"
     sodipodi:insensitive="true">
    <path
       style="fill:none;fill-opacity:1;stroke:#000000;stroke-width:3;stroke-miterlimit:4;stroke-dasharray:none;stroke-opacity:1"
       d="M 1.5,1.5 L 1.5,460.36794 C 1.5,626.67854 135.81454,761.5 301.49993,761.5 C 467.1854,761.5 601.5,626.67854 601.5,460.36794 L 601.5,1.5 L 1.5,1.5 z "
       id="path3239" />
  </g>
</svg>

<?xml version="1.0" encoding="UTF-8"?>
<svg version="1.0" viewBox="0 0 603 763" xmlns="http://www.w3.org/2000/svg" xmlns:cc="http://web.resource.org/cc/" xmlns:dc="http://purl.org/dc/elements/1.1/" xmlns:rdf="http://www.w3.org/1999/02/22-rdf-syntax-ns#" xmlns:xlink="http://www.w3.org/1999/xlink">
<metadata>
<rdf:RDF>
<cc:Work rdf:about="">
<dc:format>image/svg+xml</dc:format>
<dc:type rdf:resource="http://purl.org/dc/dcmitype/StillImage"/>
<dc:date>07-AUG-2006</dc:date>
<dc:creator>
<cc:Agent>
<dc:title>Jérôme BLUM (wagner51)</dc:title>
</cc:Agent>
</dc:creator>
<cc:license rdf:resource="http://creativecommons.org/licenses/GPL/2.0/"/>
<dc:coverage/>
<dc:description>Gabarit pour le Projet:Blasons de WIkipédia</dc:description>
<dc:subject>
<rdf:Bag>
<rdf:li>blason suisse modèle gabarit projet blasons</rdf:li>
</rdf:Bag>
</dc:subject>
<dc:language>fr</dc:language>
<dc:title>Gabrit d'un blason suisse</dc:title>
</cc:Work>
<cc:License rdf:about="http://creativecommons.org/licenses/GPL/2.0/">
<cc:permits rdf:resource="http://web.resource.org/cc/Reproduction"/>
<cc:permits rdf:resource="http://web.resource.org/cc/Distribution"/>
<cc:requires rdf:resource="http://web.resource.org/cc/Notice"/>
<cc:permits rdf:resource="http://web.resource.org/cc/DerivativeWorks"/>
<cc:requires rdf:resource="http://web.resource.org/cc/ShareAlike"/>
<cc:requires rdf:resource="http://web.resource.org/cc/SourceCode"/>
</cc:License>
</rdf:RDF>
</metadata>
<defs>
<radialGradient id="a" cx="858.04" cy="579.93" r="300" gradientTransform="matrix(1.215 1.5316e-24 1.4647e-23 1.2667 -839.19 -490.49)" gradientUnits="userSpaceOnUse">
<stop stop-color="#fff" stop-opacity=".31373" offset="0"/>
<stop stop-color="#fff" stop-opacity=".25098" offset=".19"/>
<stop stop-color="#6b6b6b" stop-opacity=".12549" offset=".6"/>
<stop stop-opacity=".12549" offset="1"/>
</radialGradient>
</defs>
<desc>Coat of Arms of Canton of Freiburg (Fribourg)</desc>
<path d="m1.5 1.5v458.87c0 166.31 134.31 301.13 300 301.13 165.69 0 300-134.82 300-301.13v-458.87h-600z" fill="#fcef3c"/>
<path d="m221.41 63 14.939 94.939 130 0.82801 13.65-95.767-84.111 26.472-74.478-26.472z" fill-rule="evenodd"/>
<path d="m155.5 157.24c12.922 201.1 71.233 282.77 142.92 365.26 118.03-117.58 129.32-239.65 145.93-368.03l-288.84 2.7693z" fill-rule="evenodd" stroke="#000" stroke-width="1px"/>
<g transform="matrix(.98924 0 0 .98924 6.2207 16.777)">
<path d="m84.234 141.18-53.602-17.472c-9.906 70.092-26.498 206.91 30.389 373.59 48.22 141.29 121.97 206.35 209.17 225.2-128.33-151.07-117.38-332.69-123.49-421.45l-71.074-37.565 8.6114-122.3z" fill-rule="evenodd" stroke="#000" stroke-width="3.0326"/>
<path d="m148.57 305.6-71.465-11.335 10.752-126.76-64.458-23.021" fill="none" stroke="#fcef3c" stroke-width="5.0544"/>
<path transform="matrix(-4.0685 0 0 4.0685 3494.6 -1244)" d="m848.76 351.32a1.7638 1.7638 0 1 1-3.5277 0 1.7638 1.7638 0 1 1 3.5277 0z" fill="#fcef3c" fill-rule="evenodd"/>
<path transform="matrix(-4.0685 0 0 4.0685 3494.6 -1195.2)" d="m848.76 351.32a1.7638 1.7638 0 1 1-3.5277 0 1.7638 1.7638 0 1 1 3.5277 0z" fill="#fcef3c" fill-rule="evenodd"/>
</g>
<g transform="matrix(-.98924 0 0 .98924 593.78 16.777)">
<path d="m84.234 141.18-53.602-17.472c-9.906 70.092-26.498 206.91 30.389 373.59 48.22 141.29 121.97 206.35 209.17 225.2-128.33-151.07-117.38-332.69-123.49-421.45l-71.074-37.565 8.6114-122.3z" fill-rule="evenodd" stroke="#000" stroke-width="3.0326"/>
<path d="m148.57 305.6-71.465-11.335 10.752-126.76-64.458-23.021" fill="none" stroke="#fcef3c" stroke-width="5.0544"/>
<path transform="matrix(-4.0685 0 0 4.0685 3494.6 -1244)" d="m848.76 351.32a1.7638 1.7638 0 1 1-3.5277 0 1.7638 1.7638 0 1 1 3.5277 0z" fill="#fcef3c" fill-rule="evenodd"/>
<path transform="matrix(-4.0685 0 0 4.0685 3494.6 -1195.2)" d="m848.76 351.32a1.7638 1.7638 0 1 1-3.5277 0 1.7638 1.7638 0 1 1 3.5277 0z" fill="#fcef3c" fill-rule="evenodd"/>
</g>
<path transform="matrix(3.9251 0 0 3.775 -2804.2 -1188.9)" d="m811.72 331.21a20.637 9.8775 0 1 1-41.274 0 20.637 9.8775 0 1 1 41.274 0z" fill-rule="evenodd" stroke="#fcef3c" stroke-linecap="round" stroke-linejoin="round" stroke-width=".77936"/>
<path d="m293.28 330.25 3.5277 153.16h3l2.8222-154.57-9.3498 1.4111z" fill="#fcef3c" fill-rule="evenodd"/>
<path d="m430.88 162.5-65.125 9.9375-5.488 6.6443 70.769-15.582-0.15625-1z" fill="#fcef3c" fill-rule="evenodd"/>
<path d="m169.66 162.5-0.15625 1 70.067 15.595-1.2548-5.9388-68.656-10.656z" fill="#fcef3c" fill-rule="evenodd"/>
<path d="m300.63 40.078c-29.057 0-52.62 6.9809-52.62 15.578 0 7.1466 17.708 20.057 39.899 21.887l-1.3846 101.02-19.527 6.4974c-31.907-8.0377-34.358-20.599-32.995-29.309 1.5212-9.7192-14.391-78.244-13.037-89.473 1.4877 10.196 12.818 91.322 14.635 103.06 11.774 76.039 31.098 174.54 66.133 167.33 37.087-7.6296 50.605-99.466 63.873-160.65 2.985-13.765 13.573-100.06 16.798-109.41 1.4846 7.7534-12.375 75.305-14.176 87.86-0.68814 4.7971 1.3589 28.08-33.668 30.385l-20.561-6.2084-2.7693-102.49c22.527-1.7643 42.02-13.286 42.02-20.503 0-8.5967-23.563-15.578-52.62-15.578z" fill-rule="evenodd" stroke="#fcef3c" stroke-linecap="round" stroke-linejoin="round" stroke-width="3"/>
<path d="m311.25 77.523-0.55767 0.16464 3.781 99.115 19.245 8.5098 2.0986-89.125v-0.6875l-0.5-0.46875-24.067-17.508z" fill-rule="evenodd" stroke="#fcef3c" stroke-opacity=".98883" stroke-width="3"/>
<path d="m289.27 77.523 0.55767 0.16464-3.781 99.588-17.129 7.3319-4.2152-88.419v-0.6875l0.5-0.46875 24.067-17.508z" fill-rule="evenodd" stroke="#fcef3c" stroke-opacity=".98883" stroke-width="3"/>
<g>
<path d="m1.5 1.5v458.87c0 166.31 134.31 301.13 300 301.13 165.69 0 300-134.82 300-301.13v-458.87h-600z" fill="url(#a)"/>
<path d="m1.5 1.5v458.87c0 166.31 134.31 301.13 300 301.13 165.69 0 300-134.82 300-301.13v-458.87h-600z" fill="none" stroke="#000" stroke-width="3"/>
</g>
</svg>
